X:23
T:Ai! Pinn
T:Ai! Pachn
T:D'equ a Somi
R:Fandangu
C:Tradicional
S:Msica Tradicional Asturiana, (C) Tello & Tito. Asturies, 2001.
S:http://pagina.de/MusTradAst <telloytito@asturies.org>
A:Asturies
Z:Asturias, canciones
M:6/8
L:1/8
Q:3/8=100
K:F
F2 A|ccc c2 d|d2 c d2 c|BAG cBA|G2 F F2 A|
|ccc c2 d|d2 c dcB|A2 G cBA|G2 F FEF|
|G3 FEF|G3 GAB|cdc BAG|c3 FEF|
|G2 G FEF|G3 GAB|cdc BAG|F2 z4|
